src/standard/office.svg

<svg xmlns="http://www.w3.org/2000/svg" viewBox="0 0 36 36">
  <path d="M6 4.39a.62.62 0 0 0-.62.61v26a.62.62 0 0 0 .62.63h24a.62.62 0 0 0 .62-.63V5a.62.62 0 0 0-.62-.61Zm12.62 12v-4.77h4.76v4.76Zm-6 0v-4.77h4.76v4.76Zm-6 0v-4.77h4.76v4.76Zm10.76-6h-4.76V5.64h4.76Zm1.24-4.74h4.76v4.74h-4.76Zm6 6h4.76v4.76h-4.76Zm4.76-1.24h-4.76V5.64h4.76Zm-18-4.74v4.74H6.62V5.64Zm11 24.65h-3.76v-8.66h3.76Zm-5 0h-3.76v-8.66h3.76ZM13 20.41a.62.62 0 0 0-.62.62v9.33H6.62V17.62h22.76v12.74h-5.76V21a.62.62 0 0 0-.62-.62Z"/>
</svg>

<svg id="b6ab553e-8ac7-4ec2-9588-c46e63df691c" data-name="Icon" xmlns="http://www.w3.org/2000/svg" viewBox="0 0 36 36">
  <title>Office icon - Black</title>
<desc>tower, business, work, commute, day, routine, workplace, buildings and industries</desc>
<metadata><?xpacket begin="﻿" id="W5M0MpCehiHzreSzNTczkc9d"?>
<x:xmpmeta xmlns:x="adobe:ns:meta/" x:xmptk="Adobe XMP Core 8.0-c001 1.000000, 0000/00/00-00:00:00        ">
   <rdf:RDF xmlns:rdf="http://www.w3.org/1999/02/22-rdf-syntax-ns#">
      <rdf:Description rdf:about=""
            xmlns:xmp="http://ns.adobe.com/xap/1.0/"
            xmlns:dc="http://purl.org/dc/elements/1.1/"
            xmlns:cq="http://www.day.com/jcr/cq/1.0"
            xmlns:tiff="http://ns.adobe.com/tiff/1.0/">
         <xmp:rhcc-effective-on>2023-12-08T17:47:37.426Z</xmp:rhcc-effective-on>
         <xmp:rhcc-metadata-complete-moderator>pending</xmp:rhcc-metadata-complete-moderator>
         <xmp:rhcc-translation-id>TRAdda75317-1e30-4a3b-bdf6-d53f7b8ab4f9</xmp:rhcc-translation-id>
         <xmp:brand-content-type>Icon</xmp:brand-content-type>
         <xmp:CreateDate>2023-12-08T17:47:37.426Z</xmp:CreateDate>
         <xmp:rhcc-effective-on-set-on-upload>true</xmp:rhcc-effective-on-set-on-upload>
         <xmp:rhcc-metadata-complete-uploader>pending</xmp:rhcc-metadata-complete-uploader>
         <xmp:rhcc-file-last-modified>2023-12-08T17:48:03.894Z</xmp:rhcc-file-last-modified>
         <xmp:rhcc-audience>rhcc-audience:internal</xmp:rhcc-audience>
         <xmp:rhcc-rights-restricted>no</xmp:rhcc-rights-restricted>
         <xmp:brand-content-subtype>Icon</xmp:brand-content-subtype>
         <xmp:rhcc-derivative-id>DERdda75317-1e30-4a3b-bdf6-d53f7b8ab4f9</xmp:rhcc-derivative-id>
         <xmp:brand-logo-color>Black</xmp:brand-logo-color>
         <xmp:rhcc-notify-portal-subscribers-on-change>yes</xmp:rhcc-notify-portal-subscribers-on-change>
         <dc:format>image/svg+xml</dc:format>
         <dc:modified>2024-02-09T20:24:31.891Z</dc:modified>
         <dc:title>
            <rdf:Alt>
               <rdf:li xml:lang="x-default">Office icon - Black</rdf:li>
            </rdf:Alt>
         </dc:title>
         <dc:description>
            <rdf:Alt>
               <rdf:li xml:lang="x-default">tower, business, work, commute, day, routine, workplace, buildings and industries</rdf:li>
            </rdf:Alt>
         </dc:description>
         <cq:lastReplicationAction_scene7>Activate</cq:lastReplicationAction_scene7>
         <cq:lastReplicationAction_publish>Activate</cq:lastReplicationAction_publish>
         <cq:lastReplicated_publish>2024-02-09T22:07:13.679Z</cq:lastReplicated_publish>
         <cq:lastReplicatedBy>workflow-process-service</cq:lastReplicatedBy>
         <cq:lastReplicationAction>Activate</cq:lastReplicationAction>
         <cq:lastReplicatedBy_publish>workflow-process-service</cq:lastReplicatedBy_publish>
         <cq:isDelivered>true</cq:isDelivered>
         <cq:lastReplicated>2024-02-09T22:07:13.679Z</cq:lastReplicated>
         <cq:lastReplicatedBy_scene7>workflow-process-service</cq:lastReplicatedBy_scene7>
         <cq:lastReplicated_scene7>2024-02-09T22:07:13.679Z</cq:lastReplicated_scene7>
         <tiff:ImageLength>36</tiff:ImageLength>
         <tiff:ImageWidth>36</tiff:ImageWidth>
      </rdf:Description>
   </rdf:RDF>
</x:xmpmeta>
                                                                                                    
                                                                                                    
                                                                                                    
                                                                                                    
                                                                                                    
                                                                                                    
                                                                                                    
                                                                                                    
                                                                                                    
                                                                                                    
                                 
<?xpacket end="w"?></metadata>
<path d="M6,4.39A.62.62,0,0,0,5.38,5V31a.62.62,0,0,0,.62.63H30a.62.62,0,0,0,.62-.63V5A.62.62,0,0,0,30,4.39Zm12.62,12V11.62h4.76v4.76Zm-6,0V11.62h4.76v4.76Zm-6,0V11.62h4.76v4.76Zm10.76-6H12.62V5.64h4.76Zm1.24-4.74h4.76v4.74H18.62Zm6,6h4.76v4.76H24.62Zm4.76-1.24H24.62V5.64h4.76Zm-18-4.74v4.74H6.62V5.64Zm11,24.65H18.62V21.66h3.76Zm-5,0H13.62V21.66h3.76ZM13,20.41a.62.62,0,0,0-.62.62v9.33H6.62V17.62H29.38V30.36H23.62V21a.62.62,0,0,0-.62-.62Z"/>
</svg>
